src/assets/icons/chip-deposit.svg

<svg width="256" height="252" viewBox="0 0 256 252" fill="none" xmlns="http://www.w3.org/2000/svg">
<path opacity="0.1" d="M152.413 0.195343C151.048 0.582153 149.907 2.65881 150.192 4.2265C150.498 5.87563 151.435 6.97504 152.738 7.23972L153.35 7.36188L153.309 50.524L153.248 93.7065L152.29 93.6454L151.313 93.5844V96.964V100.344H147.341H143.368L143.328 97.0251L143.267 93.7269L142.146 93.7065L141.026 93.6861L140.965 70.7206C140.924 48.0401 140.924 47.7755 141.331 47.2665C141.881 46.5539 142.207 45.2509 142.044 44.3754C141.841 43.215 141.026 42.0137 140.191 41.6066C139.193 41.1383 137.176 41.2604 136.402 41.8101C135.078 42.7874 134.569 44.9455 135.282 46.615C135.689 47.633 136.83 48.4473 137.97 48.5899L138.887 48.6917L138.846 71.1685L138.785 93.6658L137.054 93.7065L135.322 93.7269L135.261 97.0251L135.221 100.344H131.248H127.297V97.0251V93.7269H125.606H123.915L123.814 79.068L123.712 64.4092L112.671 64.3481L101.611 64.3074V48.936V33.5645L102.181 32.7094C102.649 31.9765 102.731 31.6508 102.731 30.4088C102.731 29.1262 102.67 28.8615 102.161 28.21C101.387 27.192 100.633 26.8459 99.207 26.8459C98.2904 26.8459 97.8422 26.9681 97.3126 27.3142C95.9478 28.21 95.3164 30.4292 95.9886 31.9969C96.3349 32.8316 97.5367 33.8903 98.3311 34.0735L98.9626 34.216V50.2797V66.3433H110.268H121.573V80.0249V93.7269H120.514H119.434L119.373 97.0251L119.332 100.344H115.36H111.388L111.347 97.0251L111.286 93.7269H110.308H109.351V85.2166V76.7267H96.4571H83.5427L83.0538 76.1973C82.3002 75.3829 81.5669 75.0979 80.2632 75.0979C79.3466 75.0979 78.8984 75.1997 78.3688 75.5662C76.1282 77.0728 76.2504 80.7171 78.5929 81.9591C80.8132 83.1399 83.4409 81.898 83.8279 79.4752L83.9501 78.7626H95.2145H106.499L106.459 86.2142L106.397 93.6861L104.972 93.7065L103.546 93.7269L103.485 97.0251L103.444 100.344H99.4718H95.4997L95.459 97.0251L95.3979 93.7269H94.7868L94.1757 93.7065L94.1146 90.0011L94.0738 86.2956H71.8098H49.5661L48.5476 85.7663C46.0422 84.4836 43.3534 86.1531 43.3534 89.0035C43.3534 90.2657 43.7404 91.1412 44.6367 91.9352C46.531 93.6047 49.6476 92.5867 50.3198 90.0825L50.5642 89.146H70.995H91.4462L91.385 91.4059L91.3239 93.6658L89.3888 93.6861L87.4537 93.7269L87.3926 97.0251L87.3518 100.344H82.4631H77.5744V107.368V114.392H74.2134H70.8524V115.206V116.021H49.7087H28.5446L27.8724 115.186C25.9577 112.804 22.3319 113.537 21.5578 116.468C21.1301 118.036 21.7615 119.706 23.167 120.642C23.6966 120.988 24.1448 121.11 25.0207 121.11C26.3854 121.11 27.2817 120.601 28.0557 119.421L28.5446 118.667H49.7087H70.8524V120.5V122.332H74.2134H77.5744V126.302V130.272H74.2134H70.8524V131.697V133.122H38.0573H5.26209V114.188V95.2538L5.77133 94.9281C6.60649 94.3784 7.15647 92.9736 7.05462 91.5688C6.95277 90.3065 6.58612 89.5939 5.64911 88.8813C4.50841 88.0466 2.55292 88.0466 1.41222 88.8813C0.230782 89.7364 -0.319199 91.7113 0.190043 93.2382C0.454848 94.0119 1.47333 95.1927 2.04368 95.376C2.38997 95.4778 2.41034 96.4143 2.45108 115.674L2.51218 135.871L36.6721 135.932L70.8524 135.973V137.194V138.416H74.2134H77.5744V142.386V146.356H74.2338H70.8728L70.8117 147.313L70.7506 148.29L49.6272 148.351L28.5243 148.392L27.8928 149.186L27.2613 149.98V165.046V180.112L26.5484 180.234C24.3077 180.662 23.1263 183.899 24.4911 185.894C25.204 186.933 25.9169 187.34 27.2206 187.442C29.2576 187.584 30.439 186.729 30.9686 184.734C31.2334 183.716 30.9686 182.189 30.3983 181.558C30.1538 181.293 30.1131 179.013 30.1131 166.227C30.1131 156.271 30.052 151.08 29.9094 150.815C29.6853 150.428 29.9909 150.428 50.2791 150.428H70.8524V152.362V154.296H74.2134H77.5744V160.099V165.901H83.6853H89.7962V169.261V172.62H90.611H91.4258V188.48C91.4258 204.197 91.4258 204.34 90.998 204.869L90.5906 205.399H77.2078L63.8249 205.378L63.4175 204.747C62.8064 203.77 61.8287 203.302 60.4639 203.302C58.3454 203.302 56.9399 204.747 56.9196 206.926C56.8992 210.936 61.9916 212.117 63.723 208.514L64.2323 207.435H77.9614H91.6702L92.872 206.396L94.0738 205.358V188.989V172.62H95.9071H97.7404V169.261V165.901H101.712H105.685V169.179C105.685 172.274 105.705 172.457 106.092 172.559C106.499 172.661 106.499 172.844 106.499 209.572V246.505L105.97 246.912C105.44 247.339 105.236 247.339 94.7664 247.339C88.0444 247.339 84.0927 247.258 84.0927 247.136C84.0927 246.769 82.7687 245.446 82.1168 245.181C80.4873 244.489 78.491 245.14 77.6152 246.627C76.9429 247.808 77.0448 249.823 77.8392 250.882C78.6744 251.961 79.428 252.287 80.915 252.185C82.4224 252.103 83.2779 251.574 83.8279 250.393L84.1945 249.599L95.2145 249.579H106.235L107.742 248.5L109.249 247.421L109.31 210.02L109.351 172.64L111.551 172.579L113.731 172.518L113.792 169.2L113.832 165.901H117.805H121.777V169.261V172.62H122.795H123.814V203.566V234.492L122.958 234.737C120.717 235.327 119.821 238.015 121.043 240.376C121.695 241.639 123.427 242.27 125.056 241.842C127.419 241.211 128.376 238.055 126.849 235.918C126.482 235.388 126.462 234.472 126.462 203.994V172.62H128.091H129.721V169.261V165.901H133.693H137.665V169.261V172.62H139.294H140.924V213.237C140.924 253.162 140.924 253.834 140.537 254.058C140.272 254.18 135.628 254.261 126.869 254.261C113.69 254.261 113.608 254.261 113.038 253.834C111.449 252.673 109.086 253.081 107.844 254.73C107.192 255.605 107.151 257.784 107.762 258.842C108.597 260.288 110.675 260.96 112.264 260.288C113.16 259.921 114.199 258.7 114.362 257.824L114.484 257.112H127.725H140.985L142.37 255.972L143.776 254.832V213.726V172.62H144.692H145.609V169.261V165.901H149.581H153.553L153.594 169.22L153.655 172.518H157.627H161.599L161.66 169.2L161.701 165.901H165.673H169.645V169.261V172.62H173.617H177.589V169.261V165.901H181.562H185.534L185.574 169.2L185.635 172.518L189.546 172.579L193.478 172.62L193.519 169.322L193.58 166.003L201.585 165.942L209.57 165.901V155.925V145.949H212.829H216.088V144.727V143.506H229.532H242.976V159.183V174.859L242.182 175.348C240.613 176.346 240.084 178.626 241 180.377C242.182 182.596 245.441 182.861 246.969 180.845C247.498 180.153 247.559 179.929 247.559 178.524C247.559 177.119 247.498 176.895 246.969 176.203C246.643 175.776 246.072 175.307 245.706 175.144L245.013 174.859L244.972 157.798L244.911 140.757L230.51 140.696L216.088 140.656V139.271V137.907L212.829 137.968L209.57 138.029V133.937V129.865H212.829H216.068L216.129 128.073L216.19 126.302L232.506 126.241L248.822 126.2L249.189 127.035C250.431 129.763 254.363 129.682 255.626 126.913C256.95 124.001 254.566 120.988 251.531 121.721C250.635 121.945 249.291 122.922 249.291 123.37C249.291 123.472 242.284 123.533 232.751 123.513L216.19 123.452L216.129 122.678L216.068 121.925H212.809H209.57V111.134V100.344H200.404H191.237L191.196 97.0251C191.156 94.5209 191.074 93.7472 190.891 93.7676C190.687 93.8083 190.626 90.0214 190.626 75.3015V56.7744H208.959H227.271L227.658 57.6498C228.228 58.9325 229.125 59.5025 230.754 59.584C231.875 59.6451 232.18 59.584 232.771 59.1768C234.034 58.3217 234.319 57.7516 234.319 56.0007C234.319 54.1684 233.891 53.3743 232.588 52.7025C231.162 51.9695 229.553 52.2139 228.412 53.3336L227.78 53.924L208.144 53.9648L188.487 54.0258L188.426 73.8763L188.385 93.7269L185.839 93.6658L183.293 93.6047V96.964V100.344H179.28H175.247V97.0251V93.7269L174.33 93.7065L173.414 93.6861L173.353 61.4978L173.312 29.289L188.121 29.2483L202.929 29.1873L202.868 20.1069L202.807 11.0266L203.5 10.5379C204.437 9.86609 204.824 9.3571 205.089 8.37985C205.72 6.16066 204.274 3.90076 202.074 3.67679C200.75 3.55466 199.752 3.90076 198.998 4.75586C197.389 6.58821 197.857 9.49962 199.935 10.599L200.811 11.0673V19.1704V27.2938L185.737 27.2327L170.664 27.192L170.603 60.4187L170.562 93.6658L168.932 93.6861L167.303 93.7269L167.242 97.0251L167.201 100.344H163.229H159.257L159.216 97.0251L159.155 93.7269L157.668 93.7065L156.201 93.6658V50.1575C156.201 6.99541 156.201 6.64929 156.609 6.07922C157.24 5.18341 157.505 3.69717 157.24 2.65881C156.67 0.561798 154.674 -0.456177 152.413 0.195343Z" fill="#8DF8FF"/>
</svg>

<svg width="256" height="252" fill="none" xmlns="http://www.w3.org/2000/svg"><path opacity=".1" d="M152.413.195c-1.365.387-2.506 2.464-2.221 4.031.306 1.65 1.243 2.749 2.546 3.014l.612.122-.041 43.162-.061 43.183-.958-.062-.977-.06v6.759h-7.945l-.04-3.319-.061-3.298-1.121-.02-1.12-.02-.061-22.966c-.041-22.68-.041-22.946.366-23.455.55-.712.876-2.015.713-2.89-.203-1.161-1.018-2.362-1.853-2.77-.998-.468-3.015-.346-3.789.204-1.324.977-1.833 3.136-1.12 4.805.407 1.018 1.548 1.832 2.688 1.975l.917.102-.041 22.476-.061 22.498-1.731.04-1.732.02-.061 3.3-.04 3.318H127.297v-6.617h-3.382l-.101-14.659-.102-14.659-11.041-.06-11.06-.042V33.565l.57-.856c.468-.733.55-1.058.55-2.3 0-1.283-.061-1.547-.57-2.199-.774-1.018-1.528-1.364-2.954-1.364-.917 0-1.365.122-1.894.468-1.365.896-1.997 3.115-1.324 4.683.346.835 1.548 1.893 2.342 2.077l.632.142V66.343h22.61v27.384H119.434l-.061 3.298-.041 3.319h-7.944l-.041-3.319-.061-3.298h-1.935v-17H83.543l-.49-.53c-.753-.814-1.486-1.1-2.79-1.1-.916 0-1.365.103-1.894.47-2.24 1.506-2.119 5.15.224 6.392 2.22 1.18 4.848-.061 5.235-2.484l.122-.712H106.5l-.04 7.451-.062 7.472-1.425.02-1.426.02-.061 3.3-.041 3.318H95.5l-.041-3.319-.061-3.298h-.611l-.611-.02L94.115 90l-.041-3.705H49.566l-1.018-.53c-2.506-1.282-5.195.387-5.195 3.237 0 1.263.387 2.138 1.284 2.932 1.894 1.67 5.01.652 5.683-1.853l.244-.936H91.446l-.061 2.26-.061 2.26-1.935.02-1.935.04-.061 3.3-.041 3.318h-9.778v14.048H70.852v1.629H28.545l-.673-.835c-1.914-2.382-5.54-1.649-6.314 1.282-.428 1.568.204 3.238 1.609 4.174.53.346.978.468 1.854.468 1.364 0 2.26-.509 3.035-1.689l.489-.754h42.307v3.665h6.722v7.94H70.852v2.85H5.262V95.254l.51-.326c.834-.55 1.384-1.954 1.283-3.36-.102-1.261-.469-1.974-1.406-2.687-1.14-.834-3.096-.834-4.237 0-1.181.855-1.731 2.83-1.222 4.357.265.774 1.283 1.955 1.854 2.138.346.102.366 1.038.407 20.298l.061 20.197 34.16.061 34.18.041v2.443h6.722v7.94H70.873l-.061.957-.061.977-21.124.061-21.103.041-.631.794-.632.794v30.132l-.713.122c-2.24.428-3.422 3.665-2.057 5.66.713 1.039 1.426 1.446 2.73 1.548 2.037.142 3.218-.713 3.748-2.708.264-1.018 0-2.545-.57-3.176-.245-.265-.286-2.545-.286-15.331 0-9.956-.061-15.147-.204-15.412-.224-.387.082-.387 20.37-.387h20.573v3.868h6.722v11.605h12.222V172.62h1.63v15.86c0 15.717 0 15.86-.428 16.389l-.407.53H77.208l-13.383-.021-.408-.631c-.61-.977-1.588-1.445-2.953-1.445-2.119 0-3.524 1.445-3.544 3.624-.02 4.01 5.072 5.191 6.803 1.588l.51-1.079H91.67l1.201-1.039 1.202-1.038V172.62h3.666V165.901h7.945v3.278c0 3.095.02 3.278.407 3.38.407.102.407.285.407 37.013v36.933l-.529.407c-.53.427-.734.427-11.204.427-6.722 0-10.673-.081-10.673-.203 0-.367-1.324-1.69-1.976-1.955-1.63-.692-3.626-.041-4.502 1.446-.672 1.181-.57 3.196.224 4.255.835 1.079 1.589 1.405 3.076 1.303 1.507-.082 2.363-.611 2.913-1.792l.367-.794 11.02-.02h11.02l1.507-1.079 1.507-1.079.061-37.401.041-37.38 2.2-.061 2.18-.061.061-3.318.04-3.299h7.945V172.62h2.037v61.872l-.856.245c-2.241.59-3.137 3.278-1.915 5.639.652 1.263 2.384 1.894 4.013 1.466 2.363-.631 3.32-3.787 1.793-5.924-.367-.53-.387-1.446-.387-31.924V172.62h3.259V165.901h7.944V172.62h3.259v40.617c0 39.925 0 40.597-.387 40.821-.265.122-4.909.203-13.668.203-13.179 0-13.261 0-13.831-.427-1.589-1.161-3.952-.753-5.194.896-.652.875-.693 3.054-.082 4.112.835 1.446 2.913 2.118 4.502 1.446.896-.367 1.935-1.588 2.098-2.464l.122-.712H140.985l1.385-1.14 1.406-1.14V172.62H145.609V165.901h7.944l.041 3.319.061 3.298h7.944l.061-3.318.041-3.299h7.944V172.62h7.944V165.901h7.945l.04 3.299.061 3.318 3.911.061 3.932.041.041-3.298.061-3.319 8.005-.061 7.985-.041v-19.952h6.518v-2.443h26.888v31.353l-.794.489c-1.569.998-2.098 3.278-1.182 5.029 1.182 2.219 4.441 2.484 5.969.468.529-.692.59-.916.59-2.321 0-1.405-.061-1.629-.59-2.321-.326-.427-.897-.896-1.263-1.059l-.693-.285-.041-17.061-.061-17.041-14.401-.061-14.422-.04v-2.749l-3.259.061-3.259.061v-8.164H216.068l.061-1.792.061-1.771 16.316-.061 16.316-.041.367.835c1.242 2.728 5.174 2.647 6.437-.122 1.324-2.912-1.06-5.925-4.095-5.192-.896.224-2.24 1.201-2.24 1.649 0 .102-7.007.163-16.54.143l-16.561-.061-.061-.774-.061-.753H209.57v-21.581h-18.333l-.041-3.319c-.04-2.504-.122-3.278-.305-3.257-.204.04-.265-3.747-.265-18.466V56.774H227.271l.387.876c.57 1.282 1.467 1.852 3.096 1.934 1.121.061 1.426 0 2.017-.407 1.263-.855 1.548-1.425 1.548-3.176 0-1.833-.428-2.627-1.731-3.298-1.426-.734-3.035-.49-4.176.63l-.632.591-19.636.04-19.657.062-.061 19.85-.041 19.85-2.546-.06-2.546-.061v6.739h-8.046v-6.617l-.917-.02-.916-.02-.061-32.19-.041-32.208 14.809-.04 14.808-.062-.061-9.08-.061-9.08.693-.49c.937-.67 1.324-1.18 1.589-2.157.631-2.22-.815-4.48-3.015-4.703-1.324-.122-2.322.224-3.076 1.079-1.609 1.832-1.141 4.744.937 5.843l.876.468v16.227l-15.074-.061-15.073-.041-.061 33.227-.041 33.247-1.63.02-1.629.04-.061 3.3-.041 3.318h-7.944l-.041-3.319-.061-3.298-1.487-.02-1.467-.041V50.158c0-43.163 0-43.509.408-44.079.631-.896.896-2.382.631-3.42-.57-2.097-2.566-3.115-4.827-2.464z" fill="#8DF8FF"/></svg>
